; G-Code generated by Simplify3D(R) Version 4.1.2
; Dec 31, 2023 at 11:32:15 AM
; Settings Summary
;   processName,Process1
;   applyToModels,LidarHolder2
;   profileName,Default (modified)
;   profileVersion,2015-05-01 08:00:00
;   baseProfile,
;   printMaterial,PLA
;   printQuality,Medium
;   printExtruders,
;   extruderName,Primary Extruder
;   extruderToolheadNumber,0
;   extruderDiameter,0.4
;   extruderAutoWidth,1
;   extruderWidth,0.48
;   extrusionMultiplier,1
;   extruderUseRetract,1
;   extruderRetractionDistance,10
;   extruderExtraRestartDistance,0
;   extruderRetractionZLift,0
;   extruderRetractionSpeed,1800
;   extruderUseCoasting,1
;   extruderCoastingDistance,0.2
;   extruderUseWipe,0
;   extruderWipeDistance,5
;   primaryExtruder,0
;   layerHeight,0.16
;   topSolidLayers,3
;   bottomSolidLayers,3
;   perimeterOutlines,2
;   printPerimetersInsideOut,1
;   startPointOption,2
;   startPointOriginX,0
;   startPointOriginY,0
;   sequentialIslands,0
;   spiralVaseMode,0
;   firstLayerHeightPercentage,90
;   firstLayerWidthPercentage,100
;   firstLayerUnderspeed,0.5
;   useRaft,0
;   raftExtruder,0
;   raftTopLayers,3
;   raftBaseLayers,2
;   raftOffset,3
;   raftSeparationDistance,0.14
;   raftTopInfill,100
;   aboveRaftSpeedMultiplier,0.3
;   useSkirt,1
;   skirtExtruder,0
;   skirtLayers,1
;   skirtOutlines,2
;   skirtOffset,4
;   usePrimePillar,0
;   primePillarExtruder,999
;   primePillarWidth,12
;   primePillarLocation,7
;   primePillarSpeedMultiplier,1
;   useOozeShield,0
;   oozeShieldExtruder,999
;   oozeShieldOffset,2
;   oozeShieldOutlines,1
;   oozeShieldSidewallShape,1
;   oozeShieldSidewallAngle,30
;   oozeShieldSpeedMultiplier,1
;   infillExtruder,0
;   internalInfillPattern,Rectilinear
;   externalInfillPattern,Rectilinear
;   infillPercentage,25
;   outlineOverlapPercentage,25
;   infillExtrusionWidthPercentage,100
;   minInfillLength,5
;   infillLayerInterval,2
;   internalInfillAngles,45,-45
;   overlapInternalInfillAngles,0
;   externalInfillAngles,45,-45
;   generateSupport,1
;   supportExtruder,0
;   supportInfillPercentage,30
;   supportExtraInflation,0
;   supportBaseLayers,0
;   denseSupportExtruder,0
;   denseSupportLayers,0
;   denseSupportInfillPercentage,70
;   supportLayerInterval,2
;   supportHorizontalPartOffset,0.5
;   supportUpperSeparationLayers,1
;   supportLowerSeparationLayers,1
;   supportType,0
;   supportGridSpacing,4
;   maxOverhangAngle,45
;   supportAngles,0
;   temperatureName,Primary Extruder
;   temperatureNumber,0
;   temperatureSetpointCount,1
;   temperatureSetpointLayers,1
;   temperatureSetpointTemperatures,195
;   temperatureStabilizeAtStartup,1
;   temperatureHeatedBed,0
;   fanLayers,1,2
;   fanSpeeds,0,100
;   blipFanToFullPower,0
;   adjustSpeedForCooling,1
;   minSpeedLayerTime,15
;   minCoolingSpeedSlowdown,20
;   increaseFanForCooling,0
;   minFanLayerTime,45
;   maxCoolingFanSpeed,100
;   increaseFanForBridging,0
;   bridgingFanSpeed,100
;   use5D,1
;   relativeEdistances,0
;   allowEaxisZeroing,1
;   independentExtruderAxes,0
;   includeM10123,0
;   stickySupport,1
;   applyToolheadOffsets,0
;   gcodeXoffset,0
;   gcodeYoffset,0
;   gcodeZoffset,0
;   overrideMachineDefinition,1
;   machineTypeOverride,0
;   strokeXoverride,300
;   strokeYoverride,300
;   strokeZoverride,400
;   originOffsetXoverride,0
;   originOffsetYoverride,0
;   originOffsetZoverride,0
;   homeXdirOverride,-1
;   homeYdirOverride,-1
;   homeZdirOverride,-1
;   flipXoverride,1
;   flipYoverride,-1
;   flipZoverride,1
;   toolheadOffsets,0,0|0,0|0,0|0,0|0,0|0,0
;   overrideFirmwareConfiguration,0
;   firmwareTypeOverride,RepRap (Marlin/Repetier/Sprinter)
;   GPXconfigOverride,r2
;   baudRateOverride,115200
;   overridePrinterModels,0
;   printerModelsOverride
;   startingGcode,G28 ; home all axes
;   layerChangeGcode,
;   retractionGcode,
;   toolChangeGcode,
;   endingGcode,M104 S0 ; turn off extruder,M140 S0 ; turn off bed,M84 ; disable motors
;   exportFileFormat,x3g
;   celebration,0
;   celebrationSong,Random Song
;   postProcessing,
;   defaultSpeed,1800
;   outlineUnderspeed,0.5
;   solidInfillUnderspeed,0.8
;   supportUnderspeed,0.8
;   rapidXYspeed,4800
;   rapidZspeed,1000
;   minBridgingArea,50
;   bridgingExtraInflation,0
;   bridgingExtrusionMultiplier,1
;   bridgingSpeedMultiplier,1
;   useFixedBridgingAngle,0
;   fixedBridgingAngle,0
;   applyBridgingToPerimeters,0
;   filamentDiameters,1.75|1.75|1.75|1.75|1.75|1.75
;   filamentPricesPerKg,46|46|46|46|46|46
;   filamentDensities,1.25|1.25|1.25|1.25|1.25|1.25
;   useMinPrintHeight,0
;   minPrintHeight,0
;   useMaxPrintHeight,0
;   maxPrintHeight,0
;   useDiaphragm,0
;   diaphragmLayerInterval,20
;   robustSlicing,1
;   mergeAllIntoSolid,0
;   onlyRetractWhenCrossingOutline,1
;   retractBetweenLayers,1
;   useRetractionMinTravel,0
;   retractionMinTravel,3
;   retractWhileWiping,0
;   onlyWipeOutlines,1
;   avoidCrossingOutline,0
;   maxMovementDetourFactor,3
;   toolChangeRetractionDistance,12
;   toolChangeExtraRestartDistance,-0.5
;   toolChangeRetractionSpeed,600
;   externalThinWallType,0
;   internalThinWallType,2
;   thinWallAllowedOverlapPercentage,10
;   singleExtrusionMinLength,1
;   singleExtrusionMinPrintingWidthPercentage,50
;   singleExtrusionMaxPrintingWidthPercentage,200
;   singleExtrusionEndpointExtension,0.2
;   horizontalSizeCompensation,0
G90
M82
M106 S0
M104 S195 T0
M109 S195 T0
G28 ; home all axes
; process Process1
; layer 1, Z = 0.144
T0
G92 E0.0000
G1 E-10.0000 F1800
; feature skirt
; tool H0.144 W0.480
G1 Z0.144 F1000
G1 X112.737 Y128.703 F4800
G1 E0.0000 F1800
G92 E0.0000
G1 X113.053 Y128.438 E0.0118 F900
G1 X113.962 Y127.801 E0.0437
G1 X114.318 Y127.595 E0.0556
G1 X115.324 Y127.126 E0.0874
G1 X115.711 Y126.985 E0.0993
G1 X116.783 Y126.698 E0.1312
G1 X117.189 Y126.627 E0.1430
G1 X118.191 Y126.539 E0.1719
G1 X118.278 Y126.535 E0.1744
G1 X118.537 Y125.910 E0.1939
G1 X118.706 Y125.580 E0.2045
G1 X119.145 Y124.862 E0.2287
G1 X119.363 Y124.562 E0.2394
G1 X119.910 Y123.922 E0.2636
G1 X120.172 Y123.660 E0.2742
G1 X120.812 Y123.113 E0.2984
G1 X121.112 Y122.895 E0.3091
G1 X121.830 Y122.456 E0.3333
G1 X122.160 Y122.287 E0.3439
G1 X122.938 Y121.965 E0.3681
G1 X123.291 Y121.851 E0.3788
G1 X124.109 Y121.654 E0.4029
G1 X124.476 Y121.596 E0.4136
G1 X125.222 Y121.537 E0.4351
G1 X125.407 Y121.530 E0.4405
G1 X131.955 Y121.530 E0.6286
G1 X134.720 Y124.295 E0.7410
G1 X134.720 Y161.530 E1.8110
G1 X165.280 Y161.530 E2.6892
G1 X165.280 Y124.295 E3.7592
G1 X168.045 Y121.530 E3.8716
G1 X174.593 Y121.530 E4.0597
G1 X174.778 Y121.537 E4.0651
G1 X175.524 Y121.596 E4.0866
G1 X175.891 Y121.654 E4.0972
G1 X176.709 Y121.851 E4.1214
G1 X177.062 Y121.965 E4.1321
G1 X177.840 Y122.287 E4.1563
G1 X178.170 Y122.456 E4.1669
G1 X178.888 Y122.895 E4.1911
G1 X179.188 Y123.113 E4.2018
G1 X179.828 Y123.660 E4.2260
G1 X180.090 Y123.922 E4.2366
G1 X180.637 Y124.562 E4.2608
G1 X180.855 Y124.862 E4.2715
G1 X181.294 Y125.580 E4.2957
G1 X181.463 Y125.910 E4.3063
G1 X181.722 Y126.535 E4.3257
G1 X181.809 Y126.539 E4.3282
G1 X182.811 Y126.627 E4.3572
G1 X183.217 Y126.698 E4.3690
G1 X184.289 Y126.985 E4.4009
G1 X184.676 Y127.126 E4.4127
G1 X185.682 Y127.595 E4.4446
G1 X186.038 Y127.801 E4.4565
G1 X186.947 Y128.438 E4.4883
G1 X187.263 Y128.703 E4.5002
G1 X188.047 Y129.487 E4.5321
G1 X188.312 Y129.803 E4.5439
G1 X188.949 Y130.712 E4.5758
G1 X189.155 Y131.068 E4.5876
G1 X189.624 Y132.074 E4.6195
G1 X189.765 Y132.461 E4.6314
G1 X190.052 Y133.533 E4.6632
G1 X190.123 Y133.939 E4.6751
G1 X190.211 Y134.941 E4.7040
G1 X190.220 Y135.147 E4.7099
G1 X190.220 Y159.353 E5.4055
G1 X190.211 Y159.559 E5.4114
G1 X190.123 Y160.561 E5.4404
G1 X190.052 Y160.967 E5.4522
G1 X189.765 Y162.039 E5.4841
G1 X189.624 Y162.426 E5.4959
G1 X189.155 Y163.431 E5.5278
G1 X188.949 Y163.789 E5.5397
G1 X188.312 Y164.697 E5.5715
G1 X188.047 Y165.013 E5.5834
G1 X187.263 Y165.797 E5.6153
G1 X186.947 Y166.062 E5.6271
G1 X186.039 Y166.699 E5.6590
G1 X185.682 Y166.905 E5.6708
G1 X184.676 Y167.374 E5.7027
G1 X184.289 Y167.515 E5.7146
G1 X183.217 Y167.802 E5.7464
G1 X182.811 Y167.873 E5.7583
G1 X182.220 Y167.925 E5.7753
G1 X182.220 Y168.853 E5.8020
G1 X182.211 Y169.059 E5.8079
G1 X182.108 Y170.235 E5.8419
G1 X182.037 Y170.641 E5.8537
G1 X181.704 Y171.881 E5.8906
G1 X181.563 Y172.268 E5.9024
G1 X181.021 Y173.431 E5.9393
G1 X180.815 Y173.788 E5.9512
G1 X180.078 Y174.840 E5.9881
G1 X179.813 Y175.156 E5.9999
G1 X178.906 Y176.064 E6.0368
G1 X178.590 Y176.328 E6.0486
G1 X177.538 Y177.065 E6.0855
G1 X177.182 Y177.271 E6.0974
G1 X176.018 Y177.813 E6.1343
G1 X175.631 Y177.954 E6.1461
G1 X174.391 Y178.287 E6.1830
G1 X173.985 Y178.358 E6.1948
G1 X172.809 Y178.461 E6.2288
G1 X172.603 Y178.470 E6.2347
G1 X127.397 Y178.470 E7.5338
G1 X127.191 Y178.461 E7.5397
G1 X126.015 Y178.358 E7.5736
G1 X125.609 Y178.287 E7.5854
G1 X124.369 Y177.954 E7.6223
G1 X123.982 Y177.813 E7.6342
G1 X122.818 Y177.271 E7.6711
G1 X122.462 Y177.065 E7.6829
G1 X121.410 Y176.328 E7.7198
G1 X121.094 Y176.064 E7.7316
G1 X120.187 Y175.156 E7.7685
G1 X119.922 Y174.840 E7.7804
G1 X119.185 Y173.788 E7.8173
G1 X118.979 Y173.432 E7.8291
G1 X118.437 Y172.268 E7.8660
G1 X118.296 Y171.881 E7.8778
G1 X117.963 Y170.641 E7.9147
G1 X117.892 Y170.235 E7.9266
G1 X117.789 Y169.059 E7.9605
G1 X117.780 Y168.853 E7.9664
G1 X117.780 Y167.925 E7.9931
G1 X117.189 Y167.873 E8.0102
G1 X116.783 Y167.802 E8.0220
G1 X115.711 Y167.515 E8.0539
G1 X115.324 Y167.374 E8.0657
G1 X114.318 Y166.905 E8.0976
G1 X113.961 Y166.699 E8.1094
G1 X113.053 Y166.062 E8.1413
G1 X112.737 Y165.797 E8.1532
G1 X111.953 Y165.013 E8.1850
G1 X111.688 Y164.697 E8.1969
G1 X111.051 Y163.788 E8.2288
G1 X110.845 Y163.432 E8.2406
G1 X110.376 Y162.426 E8.2725
G1 X110.235 Y162.039 E8.2843
G1 X109.948 Y160.967 E8.3162
G1 X109.877 Y160.561 E8.3281
G1 X109.789 Y159.559 E8.3570
G1 X109.780 Y159.353 E8.3629
G1 X109.780 Y135.147 E9.0585
G1 X109.789 Y134.941 E9.0644
G1 X109.877 Y133.939 E9.0933
G1 X109.948 Y133.533 E9.1052
G1 X110.235 Y132.461 E9.1371
G1 X110.376 Y132.074 E9.1489
G1 X110.845 Y131.068 E9.1808
G1 X111.051 Y130.712 E9.1926
G1 X111.688 Y129.803 E9.2245
G1 X111.953 Y129.487 E9.2364
G1 X112.737 Y128.703 E9.2682
G92 E0.0000
G1 E-10.0000 F1800
G1 X113.062 Y129.057 F4800
G1 E0.0000 F1800
G92 E0.0000
G1 X113.345 Y128.819 E0.0106 F900
G1 X114.220 Y128.207 E0.0413
G1 X114.540 Y128.021 E0.0520
G1 X115.508 Y127.570 E0.0826
G1 X115.856 Y127.444 E0.0933
G1 X116.887 Y127.167 E0.1239
G1 X117.252 Y127.103 E0.1346
G1 X118.223 Y127.018 E0.1626
G1 X118.408 Y127.010 E0.1679
G1 X118.615 Y127.010 E0.1739
G1 X118.666 Y126.855 E0.1786
G1 X118.973 Y126.112 E0.2017
G1 X119.125 Y125.815 E0.2113
G1 X119.545 Y125.129 E0.2344
G1 X119.741 Y124.860 E0.2439
G1 X120.263 Y124.248 E0.2670
G1 X120.498 Y124.013 E0.2766
G1 X121.110 Y123.491 E0.2997
G1 X121.379 Y123.295 E0.3093
G1 X122.065 Y122.875 E0.3324
G1 X122.362 Y122.723 E0.3420
G1 X123.104 Y122.416 E0.3651
G1 X123.421 Y122.313 E0.3747
G1 X124.203 Y122.125 E0.3978
G1 X124.532 Y122.073 E0.4073
G1 X125.250 Y122.017 E0.4280
G1 X125.417 Y122.010 E0.4328
G1 X131.756 Y122.010 E0.6150
G1 X134.240 Y124.494 E0.7159
G1 X134.240 Y162.010 E1.7940
G1 X165.760 Y162.010 E2.6998
G1 X165.760 Y124.494 E3.7779
G1 X168.244 Y122.010 E3.8789
G1 X174.583 Y122.010 E4.0610
G1 X174.750 Y122.017 E4.0658
G1 X175.468 Y122.073 E4.0865
G1 X175.797 Y122.125 E4.0961
G1 X176.579 Y122.313 E4.1192
G1 X176.896 Y122.416 E4.1288
G1 X177.638 Y122.723 E4.1519
G1 X177.935 Y122.875 E4.1615
G1 X178.621 Y123.295 E4.1846
G1 X178.890 Y123.491 E4.1941
G1 X179.502 Y124.013 E4.2172
G1 X179.737 Y124.248 E4.2268
G1 X180.259 Y124.860 E4.2499
G1 X180.455 Y125.129 E4.2595
G1 X180.875 Y125.815 E4.2826
G1 X181.026 Y126.111 E4.2922
G1 X181.334 Y126.854 E4.3153
G1 X181.385 Y127.010 E4.3200
G1 X181.592 Y127.010 E4.3259
G1 X181.777 Y127.018 E4.3313
G1 X182.748 Y127.103 E4.3593
G1 X183.113 Y127.167 E4.3699
G1 X184.144 Y127.444 E4.4006
G1 X184.492 Y127.570 E4.4112
G1 X185.460 Y128.021 E4.4419
G1 X185.780 Y128.207 E4.4525
G1 X186.655 Y128.819 E4.4832
G1 X186.938 Y129.057 E4.4939
G1 X187.693 Y129.812 E4.5245
G1 X187.931 Y130.095 E4.5352
G1 X188.543 Y130.970 E4.5659
G1 X188.729 Y131.290 E4.5765
G1 X189.180 Y132.258 E4.6072
G1 X189.306 Y132.606 E4.6178
G1 X189.583 Y133.637 E4.6485
G1 X189.647 Y134.001 E4.6591
G1 X189.732 Y134.973 E4.6871
G1 X189.740 Y135.157 E4.6925
G1 X189.740 Y159.343 E5.3875
G1 X189.732 Y159.527 E5.3928
G1 X189.647 Y160.499 E5.4208
G1 X189.583 Y160.863 E5.4314
G1 X189.306 Y161.894 E5.4621
G1 X189.180 Y162.242 E5.4727
G1 X188.729 Y163.210 E5.5034
G1 X188.543 Y163.530 E5.5141
G1 X187.931 Y164.405 E5.5447
G1 X187.693 Y164.688 E5.5554
G1 X186.938 Y165.443 E5.5861
G1 X186.655 Y165.681 E5.5967
G1 X185.780 Y166.293 E5.6274
G1 X185.460 Y166.479 E5.6380
G1 X184.492 Y166.930 E5.6687
G1 X184.144 Y167.056 E5.6793
G1 X183.113 Y167.333 E5.7100
G1 X182.749 Y167.397 E5.7206
G1 X181.777 Y167.482 E5.7487
G1 X181.740 Y167.484 E5.7497
G1 X181.740 Y168.843 E5.7888
G1 X181.732 Y169.027 E5.7941
G1 X181.632 Y170.172 E5.8271
G1 X181.567 Y170.537 E5.8378
G1 X181.246 Y171.736 E5.8734
G1 X181.119 Y172.084 E5.8841
G1 X180.595 Y173.210 E5.9198
G1 X180.410 Y173.530 E5.9304
G1 X179.697 Y174.548 E5.9661
G1 X179.459 Y174.831 E5.9767
G1 X178.581 Y175.709 E6.0124
G1 X178.298 Y175.947 E6.0231
G1 X177.280 Y176.659 E6.0587
G1 X176.960 Y176.845 E6.0694
G1 X175.834 Y177.369 E6.1051
G1 X175.486 Y177.496 E6.1157
G1 X174.287 Y177.817 E6.1514
G1 X173.922 Y177.882 E6.1620
G1 X172.777 Y177.982 E6.1951
G1 X172.593 Y177.990 E6.2004
G1 X127.407 Y177.990 E7.4988
G1 X127.223 Y177.982 E7.5042
G1 X126.078 Y177.882 E7.5372
G1 X125.713 Y177.817 E7.5478
G1 X124.514 Y177.496 E7.5835
G1 X124.166 Y177.369 E7.5942
G1 X123.040 Y176.845 E7.6298
G1 X122.720 Y176.659 E7.6405
G1 X121.702 Y175.947 E7.6762
G1 X121.419 Y175.709 E7.6868
G1 X120.541 Y174.831 E7.7225
G1 X120.303 Y174.548 E7.7331
G1 X119.590 Y173.530 E7.7688
G1 X119.405 Y173.210 E7.7795
G1 X118.881 Y172.084 E7.8151
G1 X118.754 Y171.736 E7.8258
G1 X118.433 Y170.537 E7.8615
G1 X118.368 Y170.172 E7.8721
G1 X118.268 Y169.027 E7.9051
G1 X118.260 Y168.843 E7.9104
G1 X118.260 Y167.484 E7.9495
G1 X118.223 Y167.482 E7.9506
G1 X117.251 Y167.397 E7.9786
G1 X116.887 Y167.333 E7.9892
G1 X115.856 Y167.056 E8.0199
G1 X115.508 Y166.930 E8.0305
G1 X114.540 Y166.479 E8.0612
G1 X114.220 Y166.293 E8.0719
G1 X113.345 Y165.681 E8.1025
G1 X113.062 Y165.443 E8.1132
G1 X112.307 Y164.688 E8.1439
G1 X112.069 Y164.405 E8.1545
G1 X111.457 Y163.530 E8.1852
G1 X111.271 Y163.210 E8.1958
G1 X110.820 Y162.242 E8.2265
G1 X110.694 Y161.894 E8.2371
G1 X110.417 Y160.863 E8.2678
G1 X110.353 Y160.499 E8.2784
G1 X110.268 Y159.527 E8.3065
G1 X110.260 Y159.343 E8.3118
G1 X110.260 Y135.157 E9.0068
G1 X110.268 Y134.973 E9.0121
G1 X110.353 Y134.001 E9.0401
G1 X110.417 Y133.637 E9.0507
G1 X110.694 Y132.606 E9.0814
G1 X110.820 Y132.258 E9.0921
G1 X111.271 Y131.290 E9.1227
G1 X111.457 Y130.970 E9.1334
G1 X112.069 Y130.095 E9.1641
G1 X112.307 Y129.812 E9.1747
G1 X113.062 Y129.057 E9.2054
G92 E0.0000
G1 E-10.0000 F1800
; feature inner perimeter
G1 X116.393 Y132.739 F4800
G1 E0.0000 F1800
G92 E0.0000
G1 X116.861 Y132.412 E0.0164 F675
G1 X117.379 Y132.170 E0.0328
G1 X117.931 Y132.023 E0.0492
G1 X118.531 Y131.970 E0.0666
G1 X123.220 Y131.970 E0.2013
G1 X123.220 Y129.278 E0.2787
G1 X123.250 Y128.895 E0.2897
G1 X123.334 Y128.546 E0.3000
G1 X123.470 Y128.216 E0.3103
G1 X123.657 Y127.911 E0.3206
G1 X123.889 Y127.639 E0.3308
G1 X124.161 Y127.407 E0.3411
G1 X124.466 Y127.220 E0.3514
G1 X124.796 Y127.084 E0.3616
G1 X125.144 Y127.000 E0.3719
G1 X125.528 Y126.970 E0.3830
G1 X129.280 Y126.970 E0.4908
G1 X129.280 Y134.675 E0.7122
G1 X126.500 Y133.070 E0.8045
G1 X122.880 Y135.160 E0.9246
G1 X122.880 Y139.340 E1.0447
G1 X126.500 Y141.430 E1.1648
G1 X129.280 Y139.825 E1.2571
G1 X129.280 Y152.675 E1.6264
G1 X126.500 Y151.070 E1.7186
G1 X122.880 Y153.160 E1.8387
G1 X122.880 Y157.340 E1.9588
G1 X126.500 Y159.430 E2.0790
G1 X129.280 Y157.825 E2.1712
G1 X129.280 Y163.278 E2.3279
G1 X129.324 Y163.832 E2.3439
G1 X129.460 Y164.400 E2.3607
