; G-Code generated by Simplify3D(R) Version 4.1.2
; Dec 27, 2023 at 12:57:12 PM
; Settings Summary
;   processName,Process1
;   applyToModels,LidarHolder
;   profileName,Default (modified)
;   profileVersion,2015-05-01 08:00:00
;   baseProfile,
;   printMaterial,PLA
;   printQuality,Medium
;   printExtruders,
;   extruderName,Primary Extruder
;   extruderToolheadNumber,0
;   extruderDiameter,0.4
;   extruderAutoWidth,0
;   extruderWidth,0.4
;   extrusionMultiplier,1
;   extruderUseRetract,1
;   extruderRetractionDistance,1
;   extruderExtraRestartDistance,0
;   extruderRetractionZLift,0
;   extruderRetractionSpeed,1800
;   extruderUseCoasting,0
;   extruderCoastingDistance,0.2
;   extruderUseWipe,0
;   extruderWipeDistance,5
;   primaryExtruder,0
;   layerHeight,0.16
;   topSolidLayers,3
;   bottomSolidLayers,3
;   perimeterOutlines,2
;   printPerimetersInsideOut,1
;   startPointOption,2
;   startPointOriginX,0
;   startPointOriginY,0
;   sequentialIslands,0
;   spiralVaseMode,0
;   firstLayerHeightPercentage,90
;   firstLayerWidthPercentage,100
;   firstLayerUnderspeed,0.5
;   useRaft,0
;   raftExtruder,0
;   raftTopLayers,3
;   raftBaseLayers,2
;   raftOffset,3
;   raftSeparationDistance,0.14
;   raftTopInfill,100
;   aboveRaftSpeedMultiplier,0.3
;   useSkirt,1
;   skirtExtruder,0
;   skirtLayers,1
;   skirtOutlines,2
;   skirtOffset,4
;   usePrimePillar,0
;   primePillarExtruder,999
;   primePillarWidth,12
;   primePillarLocation,7
;   primePillarSpeedMultiplier,1
;   useOozeShield,0
;   oozeShieldExtruder,999
;   oozeShieldOffset,2
;   oozeShieldOutlines,1
;   oozeShieldSidewallShape,1
;   oozeShieldSidewallAngle,30
;   oozeShieldSpeedMultiplier,1
;   infillExtruder,0
;   internalInfillPattern,Rectilinear
;   externalInfillPattern,Rectilinear
;   infillPercentage,30
;   outlineOverlapPercentage,25
;   infillExtrusionWidthPercentage,100
;   minInfillLength,5
;   infillLayerInterval,2
;   internalInfillAngles,45,-45
;   overlapInternalInfillAngles,0
;   externalInfillAngles,45,-45
;   generateSupport,1
;   supportExtruder,0
;   supportInfillPercentage,30
;   supportExtraInflation,0
;   supportBaseLayers,0
;   denseSupportExtruder,0
;   denseSupportLayers,0
;   denseSupportInfillPercentage,70
;   supportLayerInterval,2
;   supportHorizontalPartOffset,0.5
;   supportUpperSeparationLayers,1
;   supportLowerSeparationLayers,1
;   supportType,0
;   supportGridSpacing,4
;   maxOverhangAngle,45
;   supportAngles,0
;   temperatureName,Primary Extruder
;   temperatureNumber,0
;   temperatureSetpointCount,1
;   temperatureSetpointLayers,1
;   temperatureSetpointTemperatures,190
;   temperatureStabilizeAtStartup,1
;   temperatureHeatedBed,0
;   fanLayers,1,2
;   fanSpeeds,0,100
;   blipFanToFullPower,0
;   adjustSpeedForCooling,1
;   minSpeedLayerTime,15
;   minCoolingSpeedSlowdown,20
;   increaseFanForCooling,0
;   minFanLayerTime,45
;   maxCoolingFanSpeed,100
;   increaseFanForBridging,0
;   bridgingFanSpeed,100
;   use5D,1
;   relativeEdistances,0
;   allowEaxisZeroing,1
;   independentExtruderAxes,0
;   includeM10123,0
;   stickySupport,1
;   applyToolheadOffsets,0
;   gcodeXoffset,0
;   gcodeYoffset,0
;   gcodeZoffset,0
;   overrideMachineDefinition,1
;   machineTypeOverride,0
;   strokeXoverride,300
;   strokeYoverride,300
;   strokeZoverride,400
;   originOffsetXoverride,0
;   originOffsetYoverride,0
;   originOffsetZoverride,0
;   homeXdirOverride,-1
;   homeYdirOverride,-1
;   homeZdirOverride,-1
;   flipXoverride,1
;   flipYoverride,-1
;   flipZoverride,1
;   toolheadOffsets,0,0|0,0|0,0|0,0|0,0|0,0
;   overrideFirmwareConfiguration,0
;   firmwareTypeOverride,RepRap (Marlin/Repetier/Sprinter)
;   GPXconfigOverride,r2
;   baudRateOverride,115200
;   overridePrinterModels,0
;   printerModelsOverride
;   startingGcode,G28 ; home all axes
;   layerChangeGcode,
;   retractionGcode,
;   toolChangeGcode,
;   endingGcode,M104 S0 ; turn off extruder,M140 S0 ; turn off bed,M84 ; disable motors
;   exportFileFormat,x3g
;   celebration,0
;   celebrationSong,Random Song
;   postProcessing,
;   defaultSpeed,3600
;   outlineUnderspeed,0.5
;   solidInfillUnderspeed,0.8
;   supportUnderspeed,0.8
;   rapidXYspeed,4800
;   rapidZspeed,1000
;   minBridgingArea,50
;   bridgingExtraInflation,0
;   bridgingExtrusionMultiplier,1
;   bridgingSpeedMultiplier,1
;   useFixedBridgingAngle,0
;   fixedBridgingAngle,0
;   applyBridgingToPerimeters,0
;   filamentDiameters,1.75|1.75|1.75|1.75|1.75|1.75
;   filamentPricesPerKg,46|46|46|46|46|46
;   filamentDensities,1.25|1.25|1.25|1.25|1.25|1.25
;   useMinPrintHeight,0
;   minPrintHeight,0
;   useMaxPrintHeight,0
;   maxPrintHeight,0
;   useDiaphragm,0
;   diaphragmLayerInterval,20
;   robustSlicing,1
;   mergeAllIntoSolid,0
;   onlyRetractWhenCrossingOutline,1
;   retractBetweenLayers,1
;   useRetractionMinTravel,0
;   retractionMinTravel,3
;   retractWhileWiping,0
;   onlyWipeOutlines,1
;   avoidCrossingOutline,0
;   maxMovementDetourFactor,3
;   toolChangeRetractionDistance,12
;   toolChangeExtraRestartDistance,-0.5
;   toolChangeRetractionSpeed,600
;   externalThinWallType,0
;   internalThinWallType,2
;   thinWallAllowedOverlapPercentage,10
;   singleExtrusionMinLength,1
;   singleExtrusionMinPrintingWidthPercentage,50
;   singleExtrusionMaxPrintingWidthPercentage,200
;   singleExtrusionEndpointExtension,0.2
;   horizontalSizeCompensation,0
G90
M82
M106 S0
M104 S190 T0
M109 S190 T0
G28 ; home all axes
; process Process1
; layer 1, Z = 0.144
T0
G92 E0.0000
G1 E-1.0000 F1800
; feature skirt
; tool H0.144 W0.400
G1 Z0.144 F1000
G1 X112.818 Y128.791 F4800
G1 E0.0000 F1800
G92 E0.0000
G1 X113.126 Y128.533 E0.0096 F1800
G1 X114.016 Y127.910 E0.0356
G1 X114.358 Y127.712 E0.0451
G1 X115.362 Y127.240 E0.0717
G1 X115.745 Y127.101 E0.0814
G1 X116.809 Y126.816 E0.1078
G1 X117.204 Y126.746 E0.1174
G1 X118.199 Y126.659 E0.1413
G1 X118.360 Y126.652 E0.1452
G1 X118.646 Y125.961 E0.1631
G1 X118.810 Y125.639 E0.1718
G1 X119.245 Y124.929 E0.1917
G1 X119.458 Y124.637 E0.2003
G1 X119.998 Y124.004 E0.2203
G1 X120.254 Y123.748 E0.2289
G1 X120.887 Y123.208 E0.2489
G1 X121.179 Y122.995 E0.2575
G1 X121.889 Y122.560 E0.2774
G1 X122.211 Y122.396 E0.2861
G1 X122.980 Y122.078 E0.3060
G1 X123.323 Y121.966 E0.3147
G1 X124.133 Y121.772 E0.3346
G1 X124.489 Y121.715 E0.3433
G1 X125.229 Y121.657 E0.3610
G1 X125.410 Y121.650 E0.3654
G1 X131.905 Y121.650 E0.5209
G1 X134.600 Y124.345 E0.6122
G1 X134.600 Y161.650 E1.5055
G1 X165.400 Y161.650 E2.2431
G1 X165.400 Y124.345 E3.1365
G1 X168.095 Y121.650 E3.2277
G1 X174.590 Y121.650 E3.3833
G1 X174.771 Y121.657 E3.3876
G1 X175.511 Y121.715 E3.4054
G1 X175.867 Y121.772 E3.4140
G1 X176.677 Y121.966 E3.4340
G1 X177.020 Y122.078 E3.4426
G1 X177.789 Y122.396 E3.4626
G1 X178.111 Y122.560 E3.4712
G1 X178.821 Y122.995 E3.4911
G1 X179.113 Y123.208 E3.4998
G1 X179.746 Y123.748 E3.5197
G1 X180.002 Y124.004 E3.5284
G1 X180.542 Y124.637 E3.5483
G1 X180.755 Y124.929 E3.5570
G1 X181.190 Y125.639 E3.5769
G1 X181.354 Y125.961 E3.5856
G1 X181.640 Y126.652 E3.6035
G1 X181.801 Y126.659 E3.6073
G1 X182.796 Y126.746 E3.6312
G1 X183.191 Y126.816 E3.6409
G1 X184.253 Y127.100 E3.6672
G1 X184.630 Y127.237 E3.6768
G1 X185.626 Y127.702 E3.7031
G1 X185.974 Y127.903 E3.7127
G1 X186.874 Y128.533 E3.7390
G1 X187.182 Y128.791 E3.7487
G1 X187.959 Y129.568 E3.7750
G1 X188.217 Y129.876 E3.7846
G1 X188.847 Y130.776 E3.8109
G1 X189.048 Y131.124 E3.8205
G1 X189.513 Y132.120 E3.8469
G1 X189.650 Y132.497 E3.8565
G1 X189.934 Y133.559 E3.8828
G1 X190.004 Y133.954 E3.8924
G1 X190.091 Y134.949 E3.9163
G1 X190.100 Y135.150 E3.9211
G1 X190.100 Y159.350 E4.5007
G1 X190.091 Y159.551 E4.5055
G1 X190.004 Y160.546 E4.5294
G1 X189.934 Y160.941 E4.5390
G1 X189.650 Y162.003 E4.5653
G1 X189.513 Y162.380 E4.5749
G1 X189.048 Y163.376 E4.6013
G1 X188.847 Y163.724 E4.6109
G1 X188.217 Y164.624 E4.6372
G1 X187.959 Y164.932 E4.6468
G1 X187.182 Y165.709 E4.6731
G1 X186.874 Y165.967 E4.6827
G1 X185.974 Y166.597 E4.7091
G1 X185.626 Y166.798 E4.7187
G1 X184.630 Y167.263 E4.7450
G1 X184.253 Y167.400 E4.7546
G1 X183.191 Y167.684 E4.7809
G1 X182.796 Y167.754 E4.7905
G1 X182.100 Y167.815 E4.8073
G1 X182.100 Y168.850 E4.8321
G1 X182.091 Y169.051 E4.8369
G1 X181.989 Y170.219 E4.8650
G1 X181.919 Y170.615 E4.8746
G1 X181.590 Y171.845 E4.9051
G1 X181.452 Y172.222 E4.9147
G1 X180.914 Y173.376 E4.9452
G1 X180.713 Y173.724 E4.9548
G1 X179.983 Y174.767 E4.9853
G1 X179.725 Y175.075 E4.9949
G1 X178.825 Y175.975 E5.0254
G1 X178.517 Y176.233 E5.0350
G1 X177.474 Y176.963 E5.0655
G1 X177.126 Y177.164 E5.0751
G1 X175.972 Y177.702 E5.1056
G1 X175.595 Y177.840 E5.1152
G1 X174.365 Y178.169 E5.1457
G1 X173.969 Y178.239 E5.1553
G1 X172.801 Y178.341 E5.1834
G1 X172.600 Y178.350 E5.1882
G1 X127.400 Y178.350 E6.2707
G1 X127.199 Y178.341 E6.2755
G1 X126.031 Y178.239 E6.3036
G1 X125.635 Y178.169 E6.3132
G1 X124.405 Y177.840 E6.3437
G1 X124.028 Y177.702 E6.3533
G1 X122.874 Y177.164 E6.3838
G1 X122.526 Y176.963 E6.3934
G1 X121.483 Y176.233 E6.4239
G1 X121.175 Y175.975 E6.4335
G1 X120.275 Y175.075 E6.4640
G1 X120.017 Y174.767 E6.4736
G1 X119.287 Y173.724 E6.5041
G1 X119.086 Y173.376 E6.5137
G1 X118.548 Y172.222 E6.5442
G1 X118.410 Y171.845 E6.5538
G1 X118.081 Y170.615 E6.5843
G1 X118.011 Y170.219 E6.5940
G1 X117.909 Y169.051 E6.6220
G1 X117.900 Y168.850 E6.6268
G1 X117.900 Y167.815 E6.6516
G1 X117.204 Y167.754 E6.6684
G1 X116.809 Y167.684 E6.6780
G1 X115.747 Y167.400 E6.7043
G1 X115.370 Y167.263 E6.7139
G1 X114.374 Y166.798 E6.7402
G1 X114.026 Y166.597 E6.7498
G1 X113.126 Y165.967 E6.7762
G1 X112.818 Y165.709 E6.7858
G1 X112.041 Y164.932 E6.8121
G1 X111.783 Y164.624 E6.8217
G1 X111.153 Y163.724 E6.8480
G1 X110.952 Y163.376 E6.8577
G1 X110.487 Y162.380 E6.8840
G1 X110.350 Y162.003 E6.8936
G1 X110.066 Y160.941 E6.9199
G1 X109.996 Y160.546 E6.9295
G1 X109.909 Y159.551 E6.9534
G1 X109.900 Y159.350 E6.9582
G1 X109.900 Y135.150 E7.5378
G1 X109.909 Y134.949 E7.5426
G1 X109.996 Y133.954 E7.5665
G1 X110.066 Y133.559 E7.5761
G1 X110.350 Y132.497 E7.6024
G1 X110.487 Y132.120 E7.6121
G1 X110.952 Y131.124 E7.6384
G1 X111.153 Y130.776 E7.6480
G1 X111.783 Y129.876 E7.6743
G1 X112.041 Y129.568 E7.6839
G1 X112.818 Y128.791 E7.7102
G92 E0.0000
G1 E-1.0000 F1800
G1 X113.089 Y129.086 F4800
G1 E0.0000 F1800
G92 E0.0000
G1 X113.370 Y128.851 E0.0088 F1800
G1 X114.231 Y128.248 E0.0340
G1 X114.544 Y128.066 E0.0426
G1 X115.516 Y127.610 E0.0683
G1 X115.865 Y127.483 E0.0772
G1 X116.895 Y127.206 E0.1028
G1 X117.257 Y127.143 E0.1116
G1 X118.225 Y127.058 E0.1349
G1 X118.408 Y127.050 E0.1392
G1 X118.644 Y127.050 E0.1449
G1 X118.703 Y126.869 E0.1495
G1 X119.010 Y126.128 E0.1686
G1 X119.160 Y125.834 E0.1766
G1 X119.578 Y125.151 E0.1957
G1 X119.772 Y124.885 E0.2036
G1 X120.292 Y124.276 E0.2228
G1 X120.526 Y124.042 E0.2307
G1 X121.135 Y123.522 E0.2499
G1 X121.401 Y123.328 E0.2578
G1 X122.084 Y122.910 E0.2770
G1 X122.378 Y122.760 E0.2849
G1 X123.118 Y122.453 E0.3041
G1 X123.432 Y122.351 E0.3120
G1 X124.211 Y122.164 E0.3311
G1 X124.537 Y122.113 E0.3390
G1 X125.253 Y122.056 E0.3562
G1 X125.417 Y122.050 E0.3602
G1 X131.740 Y122.050 E0.5116
G1 X134.200 Y124.510 E0.5949
G1 X134.200 Y162.050 E1.4939
G1 X165.800 Y162.050 E2.2506
G1 X165.800 Y124.510 E3.1496
G1 X168.260 Y122.050 E3.2329
G1 X174.583 Y122.050 E3.3843
G1 X174.747 Y122.056 E3.3883
G1 X175.463 Y122.113 E3.4055
G1 X175.789 Y122.164 E3.4134
G1 X176.568 Y122.351 E3.4325
G1 X176.882 Y122.453 E3.4404
G1 X177.622 Y122.760 E3.4596
G1 X177.916 Y122.910 E3.4675
G1 X178.599 Y123.328 E3.4867
G1 X178.866 Y123.522 E3.4946
G1 X179.474 Y124.042 E3.5138
G1 X179.708 Y124.276 E3.5217
G1 X180.228 Y124.885 E3.5409
G1 X180.422 Y125.151 E3.5488
G1 X180.840 Y125.834 E3.5679
G1 X180.990 Y126.128 E3.5758
G1 X181.297 Y126.868 E3.5950
G1 X181.356 Y127.050 E3.5996
G1 X181.592 Y127.050 E3.6052
G1 X181.775 Y127.058 E3.6096
G1 X182.743 Y127.143 E3.6329
G1 X183.105 Y127.206 E3.6417
G1 X184.132 Y127.482 E3.6672
G1 X184.477 Y127.607 E3.6760
G1 X185.441 Y128.057 E3.7014
G1 X185.759 Y128.240 E3.7102
G1 X186.630 Y128.851 E3.7357
G1 X186.911 Y129.086 E3.7445
G1 X187.664 Y129.839 E3.7700
G1 X187.899 Y130.120 E3.7788
G1 X188.510 Y130.991 E3.8042
G1 X188.693 Y131.309 E3.8130
G1 X189.143 Y132.273 E3.8385
G1 X189.268 Y132.618 E3.8473
G1 X189.544 Y133.645 E3.8728
G1 X189.607 Y134.007 E3.8815
G1 X189.692 Y134.975 E3.9048
G1 X189.700 Y135.158 E3.9092
G1 X189.700 Y159.342 E4.4883
G1 X189.692 Y159.525 E4.4927
G1 X189.607 Y160.493 E4.5160
G1 X189.544 Y160.855 E4.5248
G1 X189.268 Y161.882 E4.5503
G1 X189.143 Y162.227 E4.5591
G1 X188.693 Y163.191 E4.5845
G1 X188.510 Y163.509 E4.5933
G1 X187.899 Y164.380 E4.6188
G1 X187.664 Y164.661 E4.6276
G1 X186.911 Y165.414 E4.6531
G1 X186.630 Y165.649 E4.6618
G1 X185.759 Y166.260 E4.6873
G1 X185.441 Y166.443 E4.6961
G1 X184.477 Y166.893 E4.7216
G1 X184.132 Y167.018 E4.7304
G1 X183.105 Y167.294 E4.7558
G1 X182.743 Y167.357 E4.7646
G1 X181.775 Y167.442 E4.7879
G1 X181.700 Y167.445 E4.7897
G1 X181.700 Y168.842 E4.8231
G1 X181.692 Y169.025 E4.8275
G1 X181.592 Y170.167 E4.8550
G1 X181.528 Y170.528 E4.8638
G1 X181.208 Y171.724 E4.8934
G1 X181.082 Y172.069 E4.9022
G1 X180.559 Y173.191 E4.9319
G1 X180.376 Y173.509 E4.9407
G1 X179.666 Y174.523 E4.9703
G1 X179.430 Y174.804 E4.9791
G1 X178.554 Y175.680 E5.0087
G1 X178.273 Y175.915 E5.0175
G1 X177.259 Y176.626 E5.0472
G1 X176.941 Y176.809 E5.0560
G1 X175.819 Y177.332 E5.0856
G1 X175.474 Y177.458 E5.0944
G1 X174.278 Y177.778 E5.1241
G1 X173.917 Y177.842 E5.1328
G1 X172.775 Y177.942 E5.1603
G1 X172.592 Y177.950 E5.1647
G1 X127.408 Y177.950 E6.2467
G1 X127.225 Y177.942 E6.2511
G1 X126.083 Y177.842 E6.2785
G1 X125.722 Y177.778 E6.2873
G1 X124.526 Y177.458 E6.3170
G1 X124.181 Y177.332 E6.3258
G1 X123.059 Y176.809 E6.3554
G1 X122.741 Y176.626 E6.3642
G1 X121.727 Y175.915 E6.3939
G1 X121.446 Y175.680 E6.4026
G1 X120.570 Y174.804 E6.4323
G1 X120.335 Y174.523 E6.4411
G1 X119.624 Y173.509 E6.4707
G1 X119.441 Y173.191 E6.4795
G1 X118.918 Y172.069 E6.5092
G1 X118.792 Y171.724 E6.5179
G1 X118.472 Y170.528 E6.5476
G1 X118.408 Y170.167 E6.5564
G1 X118.308 Y169.025 E6.5838
G1 X118.300 Y168.842 E6.5882
G1 X118.300 Y167.445 E6.6217
G1 X118.225 Y167.442 E6.6235
G1 X117.257 Y167.357 E6.6467
G1 X116.895 Y167.294 E6.6555
G1 X115.868 Y167.018 E6.6810
G1 X115.523 Y166.893 E6.6898
G1 X114.559 Y166.443 E6.7153
G1 X114.241 Y166.260 E6.7241
G1 X113.370 Y165.649 E6.7495
G1 X113.089 Y165.414 E6.7583
G1 X112.336 Y164.661 E6.7838
G1 X112.101 Y164.380 E6.7926
G1 X111.490 Y163.509 E6.8181
G1 X111.307 Y163.191 E6.8268
G1 X110.857 Y162.227 E6.8523
G1 X110.732 Y161.882 E6.8611
G1 X110.456 Y160.855 E6.8866
G1 X110.393 Y160.493 E6.8954
G1 X110.308 Y159.525 E6.9187
G1 X110.300 Y159.342 E6.9230
G1 X110.300 Y135.158 E7.5022
G1 X110.308 Y134.975 E7.5066
G1 X110.393 Y134.007 E7.5298
G1 X110.456 Y133.645 E7.5386
G1 X110.732 Y132.618 E7.5641
G1 X110.857 Y132.273 E7.5729
G1 X111.307 Y131.309 E7.5984
G1 X111.490 Y130.991 E7.6071
G1 X112.101 Y130.120 E7.6326
G1 X112.336 Y129.839 E7.6414
G1 X113.089 Y129.086 E7.6669
G92 E0.0000
G1 E-1.0000 F1800
; feature inner perimeter
G1 X116.316 Y132.647 F4800
G1 E0.0000 F1800
G92 E0.0000
G1 X116.794 Y132.313 E0.0140 F1350
G1 X117.339 Y132.057 E0.0284
G1 X117.910 Y131.904 E0.0425
G1 X118.526 Y131.850 E0.0574
G1 X123.100 Y131.850 E0.1669
G1 X123.100 Y129.274 E0.2286
G1 X123.131 Y128.876 E0.2381
G1 X123.219 Y128.509 E0.2472
G1 X123.363 Y128.161 E0.2562
G1 X123.560 Y127.840 E0.2652
G1 X123.804 Y127.554 E0.2742
G1 X124.090 Y127.310 E0.2832
G1 X124.411 Y127.113 E0.2922
G1 X124.759 Y126.969 E0.3012
G1 X125.125 Y126.881 E0.3103
G1 X125.524 Y126.850 E0.3198
G1 X129.400 Y126.850 E0.4127
G1 X129.400 Y134.883 E0.6050
G1 X126.500 Y133.209 E0.6852
G1 X123.000 Y135.229 E0.7820
G1 X123.000 Y139.271 E0.8788
G1 X126.500 Y141.291 E0.9756
G1 X129.400 Y139.617 E1.0558
G1 X129.400 Y152.883 E1.3734
G1 X126.500 Y151.209 E1.4536
G1 X123.000 Y153.229 E1.5504
G1 X123.000 Y157.270 E1.6472
G1 X126.500 Y159.291 E1.7440
G1 X129.400 Y157.617 E1.8242
G1 X129.400 Y163.274 E1.9596
G1 X129.442 Y163.813 E1.9726
G1 X129.574 Y164.363 E1.9861
G1 X129.791 Y164.885 E1.9997
